X: 8565
T: Crochallan
R: waltz
M: 3/4
K: Fmajor
F3/2G/|A2 GA cA|G2 F2 F3/2G/|A2 c2 f3/2d/|c4 d3/2c/|
B2 A2 G3/2F/|FA C2 c3/2B/|A2 F2 G2|F4 F2||
G2 A2 f2|F2 E2 F2|G/G3/2 A2 f2|c2 A2 F2|
G2 A2 c2|F2 E2 d2|c2 A2 G2|F4||

